X: 14
T:DROLETTE
M:2/4
L:1/8
Q:1/4=60
K:G
|:DDG2|B3/2A/2GG|DDG2|B3/2A/2G2:|
AAA2|B2cB|AGF2|E2D2|
|:G/2A/2B/2A/2G/2A/2B/2A/2| GBBA|G/2A/2B/2A/2G/2A/2B/2A/2| FAG2:||
